X:1
T:Do you Love an Apple
M:6/8
L:1/8
Q:80
C:Arranged by T. Tully
S:Air
K:HP
e | \
a3/2g/2a{e}f{gef}e{A}e | \
a3/2g/2a{e}f2{gef}e | \
a3/2g/2a{e}f{gef}ec |
{gcd}c3/2B/2{G}A{GdG}B2{gcd}c3/4B/4{G}A2{d}B{gcd}c/2e/2-e2 | \
{gfg}f2e{g}f/2a/2-a2 | \
{g}a3/2g/2a{e}f{gef}ec |
{g}B3/2c/2B{G}A2 :|
